!!!!SEGMENT: pl-cz--i-170--002_zebrowski-marcin-jozef--sonata-pro-processione-in-es.krn
!!!cenid: 17xx:2322
!!!COM: Żebrowski, Marcin Józef
!!!COM-rismID:
!!!CDT: 1702-1770/06/29
!!!CNT: Polish
!!!OTL: Sonata pro processione in Es
!!!PDT:
!!!AGN:
!!!SMS-siglum: PL-CZ
!!!SMS-shelfmark: I-170
!!!SMS-shelfwork: 002 W
!!!SMS-variant:
!!!SMS-altvar:
!!!NIFC-rismSourceID: 300033526
!!!NIFC-islandoraID: pl-cz:997
!!!URL-pdf-islandora: https://repozytorium.nifc.pl/islandora/object/pl-cz%3A997/datastream/PDF/view
!!!URL-scan: https://polish.musicsources.pl/pl/lokalizacje/galeria/rekopisy/574 @EN{Scan on Polish Music Herritage in Open Access Website} @PL{Skany w portalu Dziedzictwo Muzyki Polskiej w otwartym dostępie}
!!!ONB-nifc: UWAGA: w zbiorze 2 Sonaty: 1. in d, 2. in Es. Nieprawidłowa kolejność stron dla głosów: ob 1, ob 2, vl 1, vl 2 - druga Sonata na stronie recto, pierwsza Sonata na stronie verso. Partia organów na skanie 0002 i 0009
!!!AIN: 1 cello 2 oboe 1 organ 1 tromp 2 violn
!!!key: B-
**kern	**fba	**dynam	**kern	**kern	**kern	**kern	**kern	**kern
*part7	*	*part7	*part6	*part5	*part4	*part3	*part2	*part1
*staff7	*	*	*staff6	*staff5	*staff4	*staff3	*staff2	*staff1
*IGcont	*	*	*IGcont	*IGrpn	*IGrpn	*IGrpn	*IGrpn	*IGrpn
*ICklav	*	*	*ICstr	*ICstr	*ICstr	*ICbras	*ICww	*ICww
*Iorgan	*	*	*Icello	*Ivioln	*Ivioln	*Itromp	*Ioboe	*Ioboe
*I"Baſso Continuo.	*	*	*I"Baſso.	*I"Violino Secondo.	*I"Violino Primo	*I"Clarino Primo ex b cameralis toni	*I"Hoboe Secondo.	*I"Hoboe Primo.
*I'org	*	*	*I'b	*I'vl 2	*I'vl 1	*I'clno 1	*I'ob 2	*I'ob 1
*clefF4	*	*	*clefF4	*clefG2	*clefG2	*clefG2	*clefG2	*clefG2
*	*	*	*	*	*	*ITrd1c2	*	*
*k[e-b-]	*	*	*k[b-e-]	*k[e-b-]	*k[e-b-]	*k[b-e-]	*k[b-e-]	*k[b-e-]
*B-:	*	*	*B-:	*B-:	*B-:	*B-:	*B-:	*B-:
*M3/4	*	*	*M3/4	*M3/4	*M3/4	*M3/4	*M3/4	*M3/4
*2\right	*	*	*2\right	*2\right	*2\right	*2\right	*2\right	*2\right
=1	=1	=1	=1	=1	=1	=1	=1	=1
!LO:TX:a:t=Andante.	!	!	!LO:TX:a:t=Andante	!LO:TX:a:t=Andante	!LO:TX:a:t=Andante	!LO:TX:t=Andante	!LO:TX:a:t=Andante. 2do	!LO:TX:a:t=Andante.
4BB-/	.	.	4BB-/	4d/	(8.ff\L	4ff\	4d/	(8.ff\L
.	.	.	.	.	16gg\Jk)	.	.	16gg\Jk)
!	!	!	!	!	!LO:TX:a:t=t	!	!	!
.	.	.	.	.	8qqb-/	.	.	8qqb-/
!	!	!	!	!	!	!	!	!LO:TX:a:t=t.
2C/	x 6	.	2C/	2e-/	4.a/	2ee-\	2e-/	4.a/
.	.	.	.	.	(16g/LL	.	.	(16g/LL
.	.	.	.	.	16a/JJ)	.	.	16a/JJ)
=2	=2	=2	=2	=2	=2	=2	=2	=2
!	!	!	!	!	!LO:TX:a:t=t	!LO:TX:a:t=P:mixedbeam:problem	!	!
4D/	x 6	.	4D/	4f/	8.b-/L	8.dd\L	4f/	8.b-/L
.	.	.	.	.	32a/LL	16f/Jk	.	32a/LL
.	.	.	.	.	32g/JJJ	.	.	32g/JJJ
4r	.	.	4r	4r	4f/	8.b-\L	4r	4f/
.	.	.	.	.	.	16f\Jk	.	.
4r	.	.	4r	4r	4r	8.d/L	4r	4r
.	.	.	.	.	.	16f/Jk	.	.
=3	=3	=3	=3	=3	=3	=3	=3	=3
!	!	!	!	!	!	!	!LO:TX:a:t=2.	!LO:TX:a:t=2.
4BB-/	.	.	4BB-/	4d/	(8.f/L	4ff\	1.r	1.r
.	.	.	.	.	16g/Jk)	.	.	.
!	!	!	!	!	!LO:TX:a:t=t	!	!	!
4C/	x 6	.	4C/	4e-/	(4.A/	2ee-\	.	.
4F\	x 7	.	4F\	4c/	.	.	.	.
.	.	.	.	.	16G/LL	.	.	.
.	.	.	.	.	16A/JJ)	.	.	.
=4	=4	=4	=4	=4	=4	=4	=4	=4
!	!	!	!	!	!	!LO:TX:a:t=P:problem=mixedbeam	!	!
4BB-/	.	.	4BB-/	8d/L	8B-/L	8.dd\L	.	.
.	.	.	.	8c/J	8A/J	.	.	.
.	.	.	.	.	.	16f/Jk	.	.
.	.	.	.	8qqc/	8qqA/	.	.	.
4r	.	.	4r	4d/	4B-/	8.b-\L	.	.
.	.	.	.	.	.	16f\Jk	.	.
4r	.	.	4r	4r	4r	8.d/L	.	.
.	.	.	.	.	.	16f/Jk	.	.
=5	=5	=5	=5	=5	=5	=5	=5	=5
!	!	!	!	!LO:TX:a:t=8.	!LO:TX:a:t=8.	!	!LO:TX:b:t=solo.	!
4B-\	.	.	4B-\	0.r	0.r	4B-/	(>8.dd\L	(8.ff\L
!	!	!	!	!	!	!	!	!LO:TX:b:t=solo.
.	.	.	.	.	.	.	16ee-\Jk)	16gg\Jk)
!	!	!	!	!	!	!	!LO:TX:a:t=t.	!LO:TX:a:t=t.
.	.	.	.	.	.	.	.	8qqgg/
4r	.	.	4r	.	.	4r	4.dd\	4.ff\
4BB-/	.	.	4BB-/	.	.	4r	.	.
.	.	.	.	.	.	.	16cc\LL	16ee-\LL
.	.	.	.	.	.	.	16b-\JJ	16dd\JJ
=6	=6	=6	=6	=6	=6	=6	=6	=6
!	!	!	!	!	!	!LO:TX:a:t=7.	!	!
4F\	.	.	4F\	.	.	0.r	(16a\LL	(16cc\LL
.	.	.	.	.	.	.	16b-\)	16dd\)
.	.	.	.	.	.	.	(16b-\	(16dd\
.	.	.	.	.	.	.	16cc\JJ)	16ee-\JJ)
!	!	!	!	!	!	!	!LO:TX:a:t=t.	!LO:TX:a:t=t.
8r	.	.	8r	.	.	.	2cc\	2ee-\
8c\L	x 5	.	8c\L	.	.	.	.	.
8B-\	x 2	.	8B-\	.	.	.	.	.
8A\J	6 5	.	8A\J	.	.	.	.	.
=7	=7	=7	=7	=7	=7	=7	=7	=7
4B-\	.	.	4B-\	.	.	.	(8.f/L	(8.dd\L
.	.	.	.	.	.	.	16g/Jk)	16ee-\Jk)
!	!	!	!	!	!	!	!LO:TX:a:t=t	!LO:TX:a:t=t.
4r	.	.	4r	.	.	.	4.f/	4.dd\
4BB-/	.	.	4BB-/	.	.	.	.	.
.	.	.	.	.	.	.	16e-/LL	16cc\LL
.	.	.	.	.	.	.	16d/JJ	16b-\JJ
=8	=8	=8	=8	=8	=8	=8	=8	=8
4FF/	.	.	4FF/	.	.	.	(16c/LL	(16a\LL
.	.	.	.	.	.	.	16d/	16b-\)
.	.	.	.	.	.	.	16d/	(16b-\
.	.	.	.	.	.	.	[16e-/JJ)	16cc\JJ)
!	!	!	!	!	!	!	!LO:TX:a:t=t	!LO:TX:a:t=t.
8r	.	.	8r	.	.	.	2e-/]	2cc\
8C/L	x 5	.	8C/L	.	.	.	.	.
8BB-/	x 2	.	8BB-/	.	.	.	.	.
8AA/J	6 5	.	8AA/J	.	.	.	.	.
=9	=9	=9	=9	=9	=9	=9	=9	=9
!LO:LB:g=original	!	!	!	!	!	!	!LO:TX:a:t=P:problem=mixedbeam	!
4BB-/	.	.	4BB-/	0.r	0.r	.	8d/L	8b-\L
.	.	.	.	.	.	.	8dd\J	8ff\J
4r	.	.	4r	.	.	.	8r	8r
.	.	.	.	.	.	.	8b-\L	8dd\
4F\	x 7	.	4F\	.	.	.	8cc\	8ee-\L
.	.	.	.	.	.	.	8a\J	8cc\J
=10	=10	=10	=10	=10	=10	=10	=10	=10
4B-\	.	.	4B-\	.	.	1.r	16b-\LL	16dd\LL
.	.	.	.	.	.	.	16cc\J	16ee-\J
.	.	.	.	.	.	.	8dd\J	8ff\J
4D/	x 6	.	4D/	.	.	.	16r	16r
.	.	.	.	.	.	.	16b-\KL	16dd\KL
!	!	!	!	!	!	!	!LO:TX:a:t=t.	!LO:TX:a:t=t.
.	.	.	.	.	.	.	8b-\J	8dd\J
4F\	x 7	.	4F\	.	.	.	16cc\LL	16ee-\LL
.	.	.	.	.	.	.	16a\J	16cc\J
!	!	!	!	!	!	!	!LO:TX:a:t=t.	!LO:TX:a:t=t.
.	.	.	.	.	.	.	8a\J	8cc\J
=11	=11	=11	=11	=11	=11	=11	=11	=11
!	!	!	!	!	!	!	!LO:LB:g=original	!LO:LB:g=original
4BB-/	.	.	4BB-/	.	.	.	16b-\LL	16dd\LL
.	.	.	.	.	.	.	16dd\	16ff\
.	.	.	.	.	.	.	16ee-\	16gg\
.	.	.	.	.	.	.	16cc\JJ	16aa\JJ
.	.	.	.	.	.	.	.	8qqaa/
8r	.	.	8r	.	.	.	4.dd\	4.bb-\
8En\L	7 5	.	8En\L	.	.	.	.	.
8E\	.	.	8E\	.	.	.	.	.
8E\J	.	.	8E\J	.	.	.	8b-\	8dd\
=12	=12	=12	=12	=12	=12	=12	=12	=12
.	.	.	.	.	.	.	8qqcc/	8qqee-/
!	!	!	!LO:LB:g=original	!	!	!	!	!
4.F\	6 4	.	4.F\	.	.	2.r	4b-/	4dd\
.	5 3	.	.	.	.	.	4a/	4cc\
8F\L	.	.	8F\L	.	.	.	.	.
8En\	.	.	8En\	.	.	.	4r	4r
8D\J	.	.	8D\J	.	.	.	.	.
=13	=13	=13	=13	=13	=13	=13	=13	=13
!	!	!	!	!LO:TX:a:t=P:problem=mixedbeam	!	!	!	!
8C/L	x 7-	.	8C/L	16een\LL	16gg\LL	2.eeX\	[2g/	[2een\
.	.	.	.	16cc\J	16een\J	.	.	.
8C/	.	.	8C/	8.en/J	8.cc\J	.	.	.
8C/	.	.	8C/	.	.	.	.	.
.	.	.	.	16d/KL	16bn\KL	.	.	.
8C/	.	.	8C/	8.enX/J	8.cc\J	.	.	.
8C/	.	.	8C/	.	.	.	16g/LL]	16ee\LL]
.	.	.	.	16een\LL	16gg\LL	.	16g/	16ee\
8C/J	.	.	8C/J	16dd\	16ff\	.	16a/	16ff\
*	*	*	*	*	*custos:aa	*	*	*
.	.	.	.	16cc\JJ	16een\JJ	.	16b-/JJ	16gg\JJ
=14	=14	=14	=14	=14	=14	=14	=14	=14
!	!	!	!	!	!LO:LB:g=original	!	!	!
.	.	.	.	.	.	.	8qqb-/	8qqgg/
8C/L	6 4	.	8C/L	16ff\LL	16aa\LL	2.ff\	[2a/	[2ff\
.	.	.	.	16cc\J	16ff\J	.	.	.
8C/	.	.	8C/	8.a\J	8.cc\J	.	.	.
8C/	.	.	8C/	.	.	.	.	.
.	.	.	.	16g/KL	16bn\KL	.	.	.
8C/	.	.	8C/	8.a/J	8.cc\J	.	.	.
8C/	.	.	8C/	.	.	.	16a/LL]	16ff\LL]
.	.	.	.	16cc\LL	16aa\LL	.	16a/	16ff\
8C/J	.	.	8C/J	16b-\	16gg\	.	16b-/	16gg\
.	.	.	.	16a\JJ	16ff\JJ	.	16cc/JJ	16aa\JJ
=15	=15	=15	=15	=15	=15	=15	=15	=15
!	!	!	!	!LO:TX:a:t=P:problem=mixedbeam	!	!	!	!
8C/L	7 n	.	8C/L	16gg\LL	16bb-\LL	2.eeX\	[2een\	[2gg\
.	.	.	.	16een\J	16ff\J	.	.	.
8C/	.	.	8C/	8.en/J	8.cc\J	.	.	.
8C/	.	.	8C/	.	.	.	.	.
.	.	.	.	16d/KL	16bn\KL	.	.	.
8C/	.	.	8C/	8.en/J	8.cc\J	.	.	.
8C/	.	.	8C/	.	.	.	16ee\LL]	16gg\LL]
.	.	.	.	16gg\LL	16bb-\LL	.	16ee\	16gg\
8C/J	.	.	8C/J	16ff\	16aa\	.	16ff\	16aa\
.	.	.	.	16een\JJ	16gg\JJ	.	16gg\JJ	16bb-\JJ
=16	=16	=16	=16	=16	=16	=16	=16	=16
!	!	!	!	!LO:TX:a:t=P:problem=mixedbeam	!	!	!	!
!	!	!	!	!LO:LB:g=original	!	!	!	!
4F\	x 5	.	4F\	8ff\L	8aa\	4ff\	4ff\	4aa\
.	x 6	.	.	8a/J	4dd\	.	.	.
4En\	x 7	.	4En\	4g/	.	4r	4r	4r
.	x 6	.	.	.	4cc\	.	.	.
4D/	x 7	.	4D/	4f/	.	4r	4r	4r
.	x 6n	.	.	.	8bn\	.	.	.
=17	=17	=17	=17	=17	=17	=17	=17	=17
!LO:LB:g=original	!	!	!	!	!	!LO:TX:a:t=1.	!LO:TX:a:t=2.	!LO:TX:a:t=2.
4r	.	.	4r	4r	8cc\L	2.r	1.r	1.r
.	.	.	.	.	8a\J	.	.	.
!	!	!	!	!	!LO:TX:a:t=t.	!	!	!
.	.	.	.	.	8qqa/	.	.	.
8C\L	7-r n	.	8C\L	8en/L	2b-/	.	.	.
8D\	.	.	8D\	8f/	.	.	.	.
8En\	.	.	8En\	8g/	.	.	.	.
8C\J	.	.	8C\J	8en/J	.	.	.	.
=18	=18	=18	=18	=18	=18	=18	=18	=18
4F\	.	.	4F\	(16f/LL	(16a/LL	4ff\	.	.
.	.	.	.	16g/	16g/	.	.	.
.	.	.	.	16a/)	16f/)	.	.	.
.	.	.	.	16g/JJ	16g/JJ|	.	.	.
!	!	!	!	!LO:TX:a:t=t.	!LO:TX:a:t=t.	!	!	!
.	.	.	.	8qqf/	8qqf/	.	.	.
4c\	x n	.	4c\	2en/	2g/	2eeXt\	.	.
4C/	.	.	4C/	.	.	.	.	.
=19	=19	=19	=19	=19	=19	=19	=19	=19
!	!	!	!	!	!	!LO:LB:g=original	!	!LO:TX:b:t=solo
4F\	x 5	.	4F\	4f/	4f/	4ff\	8r	8a/
.	x 6	.	.	.	.	.	8a/	4dd\
4En\	x 7	.	4En\	4r	4r	4r	4g/	.
.	x 6	.	.	.	.	.	.	4cc\
4D/	x 7	.	4D/	4r	4r	4r	4f/	.
.	x 6n	.	.	.	.	.	.	8bn\
=20	=20	=20	=20	=20	=20	=20	=20	=20
!	!	!	!	!LO:TX:a:t=3.	!LO:TX:a:t=3.	!LO:TX:a:t=3.	!LO:TX:a:t=P:problem=mixedbeam	!
4r	.	.	4r	1.r	1.r	1.r	(16en/LL	(16cc\LL
.	.	.	.	.	.	.	16cc\)	16een\)
.	.	.	.	.	.	.	16cc\	(16ee\
.	.	.	.	.	.	.	16een\JJ	16gg\JJ)
!	!	!	!	!	!	!	!	!LO:TX:a:t=t
8C/L	7-r n	.	8C\L	.	.	.	2gg\	2bb-\
8D/	.	.	8D\	.	.	.	.	.
8En/	.	.	8En\	.	.	.	.	.
8C/J	.	.	8C\J	.	.	.	.	.
=21	=21	=21	=21	=21	=21	=21	=21	=21
.	.	.	.	.	.	.	8qqgg/	.
!	!	!	!LO:LB:g=original	!	!	!	!	!LO:LB:g=original
4F\	.	.	4F\	.	.	.	(16ff\LL	(16aa\LL
.	.	.	.	.	.	.	16een\	16gg\
.	.	.	.	.	.	.	16ff\)	16aa\)
.	.	.	.	.	.	.	16dd\JJ	16bb-\JJ
!	!	!	!	!	!	!	!	!LO:TX:a:t=t
.	.	.	.	.	.	.	.	8qqaa/
4C/	x n7	.	4C/	.	.	.	2eent\	2gg\
4CC/	.	.	4CC/	.	.	.	.	.
=22	=22	=22	=22	=22	=22	=22	=22	=22
!	!	!	!	!	!	!	!LO:LB:g=original	!
4FF;</	.	.	4FF;</	2.r	2.r	2.r	2.ff\	2.ff\
8F\L|	.	.	8F\L	.	.	.	.	.
8E-\|	.	.	8E-X\	.	.	.	.	.
8D\|	.	.	8D\	.	.	.	.	.
8C\J|	.	.	8C\J	.	.	.	.	.
=23:|!|:	=23:|!|:	=23:|!|:	=23:|!|:	=23:|!|:	=23:|!|:	=23:|!|:	=23:|!|:	=23:|!|:
!	!	!	!	!	!LO:LB:g=original	!	!	!
4F\	.	.	4F\	4a/	(8.ccc\L	4ff\	4a/	(8.ccc\L
.	.	.	.	.	16ddd\Jk)	.	.	16ddd\Jk)
!	!	!	!	!	!LO:TX:a:t=t	!	!	!LO:TX:a:t=t.
.	.	.	.	.	8qqff/	.	.	8qqff
2G\	x n6	.	2G\	2b-/	4.een\	2eeX\	2b-/	(4.een\
.	.	.	.	.	(16dd\LL	.	.	16dd\LL
.	.	.	.	.	16ee\JJ)	.	.	16ee\JJ)
=24	=24	=24	=24	=24	=24	=24	=24	=24
!	!	!	!	!	!LO:TX:a:t=t	!	!	!LO:TX:a:t=t.
4A\	x 6	.	4A\	4cc\	8.ff\L	8ff\L	4cc\	8.ff\L
.	.	.	.	.	.	8cc\	.	.
.	.	.	.	.	32een\LL	.	.	32een\LL
.	.	.	.	.	32dd\JJJ	.	.	32dd\JJJ
4r	.	.	4r	4r	4cc\	8cc\	4r	4cc\
.	.	.	.	.	.	8cc\J	.	.
4r	.	.	4r	4r	4r	16cc\LL	4r	4r
.	.	.	.	.	.	16ff\	.	.
.	.	.	.	.	.	16eeX\	.	.
.	.	.	.	.	.	16ff\JJ	.	.
=25	=25	=25	=25	=25	=25	=25	=25	=25
!	!	!	!	!	!	!	!LO:TX:a:t=2.	!LO:TX:a:t=2.
4FF/	.	.	4FF/	4A/	(8.cc\L	4cc\	1.r	1.r
.	.	.	.	.	16dd\Jk)	.	.	.
!	!	!	!	!	!LO:TX:a:t=t	!	!	!
2GG/	x n6	.	2GG/	2B-/	(4.en/	4r	.	.
.	.	.	.	.	.	4r	.	.
.	.	.	.	.	16d/LL	.	.	.
.	.	.	.	.	16e/JJ)	.	.	.
=26	=26	=26	=26	=26	=26	=26	=26	=26
!	!	!	!	!	!LO:TX:a:t=t	!	!	!
4AA/	x 6	.	4AA/	4c/	8.f/L	8r	.	.
.	.	.	.	.	.	8cc\L	.	.
.	.	.	.	.	32en/LL	.	.	.
.	.	.	.	.	32d/JJJ	.	.	.
4r	.	.	4r	4r	4c/	8cc\	.	.
.	.	.	.	.	.	8cc\J	.	.
4r	.	.	4r	4r	4r	16cc\LL	.	.
.	.	.	.	.	.	16ff\	.	.
.	.	.	.	.	.	16eeX\	.	.
.	.	.	.	.	.	16ff\JJ	.	.
=27	=27	=27	=27	=27	=27	=27	=27	=27
!	!	!	!	!LO:LB:g=original	!	!	!	!
8F\L	.	.	8F\L	16a/LL	16cc\LL	2.cc\	[2c/	[2a/
.	.	.	.	16f/J	16a\J	.	.	.
8F\	.	.	8F\	8.A/J	8.f\J	.	.	.
8F\	.	.	8F\	.	.	.	.	.
.	.	.	.	16G/KL	16en/KL	.	.	.
8F\	.	.	8F\	8.A/J	8.f/J	.	.	.
8F\	.	.	8F\	.	.	.	16c/LL]	16a/LL]
.	.	.	.	16a/LL	16cc\LL	.	16c/	16a/
8F\J	.	.	8F\J	16g/	16b-\	.	16d/	16b-/
.	.	.	.	16f/JJ	16a\JJ	.	16e-/JJ	16cc/JJ
=28	=28	=28	=28	=28	=28	=28	=28	=28
!LO:LB:g=original	!	!	!	!	!	!	!	!
8F\L	6 n	.	8F\L	16b-/LL	16dd\LL	4dd\	[2d/	[2b-\
.	.	.	.	16f/J	16b-\J	.	.	.
8F\	.	.	8F\	8.d/J	8.f\J	.	.	.
8F\	.	.	8F\	.	.	2dd\	.	.
.	.	.	.	16c/KL	16en/KL	.	.	.
8F\	.	.	8F\	8.d/J	8.f/J	.	.	.
8F\	.	.	8F\	.	.	.	16d/LL]	16b-\LL]
.	.	.	.	16f/LL	16dd\LL	.	16d/	16b-\
8F\J	.	.	8F\J	16e-/	16cc\	.	16e-/	16cc\
.	.	.	.	16d/JJ	16b-\JJ	.	16f/JJ	16dd\JJ
=29	=29	=29	=29	=29	=29	=29	=29	=29
!	!	!	!	!LO:TX:a:t=P:problem=mixedbeam	!LO:TX:a:t=P:problem=mixedbeam	!	!	!
!	!	!	!	!	!LO:LB:g=original	!	!	!
8F\L	7 3	.	8F\L	16cc\LL	16ee-\LL	2.ee-\	[2a/	[2cc\
.	.	.	.	16a\J	16cc\J	.	.	.
8F\	.	.	8F\	8.A/J	8.f/J	.	.	.
8F\	.	.	8F\	.	.	.	.	.
.	.	.	.	16G/KL	16en/KL	.	.	.
8F\	.	.	8F\	8.A/J	8.f/J	.	.	.
8F\	.	.	8F\	.	.	.	16a/LL]	16cc\LL]
.	.	.	.	16cc\LL	16ee-\LL	.	16a/	16cc\
8F\J	.	.	8F\J	16b-\	16dd\	.	16b-/	16dd\
.	.	.	.	16a\JJ	16cc\JJ	.	16cc/JJ	16ee-\JJ
=30	=30	=30	=30	=30	=30	=30	=30	=30
!LO:TX:a:t=P:problem=mixedbeam	!	!	!LO:TX:a:t=P:problem=mixedbeam	!	!	!LO:LB:g=original	!	!
8F\L	6 4	.	8F\L	16b-/LL	(16dd\LL	4dd\	16b-/LL	16dd\LL
.	.	.	.	16g/J	16b-\J)	.	16g/J	16b-\J
8FF/	.	.	8FF/	[8a/J	[8cc\J	.	[8a/J	[8cc\J
8F\	5 3	.	8F\	8a/L]	8cc\L]	4cc\	8a/L]	8cc\L]
8E-\	.	.	8E-\	8a/	8cc\	.	8a/	8cc\
8D\	x 6	.	8D\	8b-/	8dd\	4r	8b-/	8dd\
8C\J	x 6	.	8C\J	8cc/J	8ee-\J	.	8cc/J	8ee-\J
=31	=31	=31	=31	=31	=31	=31	=31	=31
!	!	!	!LO:LB:g=original	!LO:TX:a:t=P:problem=mixedbeam	!	!	!	!LO:LB:g=original
8BB-/L	.	.	8BB-/L	16dd\LL	16ff\LL	2.dd\	[2f/	[2dd\
.	.	.	.	16b-\J	16dd\J	.	.	.
8BB-/	.	.	8BB-/	8.d/J	8.b-\J	.	.	.
8BB-/	.	.	8BB-/	.	.	.	.	.
.	.	.	.	16c/KL	16a\KL	.	.	.
8BB-/	.	.	8BB-/	8.d/J	8.b-\J	.	.	.
8BB-/	.	.	8BB-/	.	.	.	16f/LL]	16dd\LL]
.	.	.	.	16dd\LL	16ff\LL	.	16f/	16dd\
8BB-/J	.	.	8BB-/J	16cc\	16ee-\	.	16g/	16ee-\
.	.	.	.	16b-\JJ	16dd\JJ	.	16a-X/JJ	16ff\JJ
=32	=32	=32	=32	=32	=32	=32	=32	=32
!	!	!	!	!	!	!	!LO:SIC:v:s=8qqa-/	!
.	.	.	.	.	.	.	8qqa/	8qqff/
8BB-/L	6 4	.	8BB-/L	16ee-\LL	16gg\LL	2.ee-\	[2g/	[2ee-\
.	.	.	.	16b-\J	16ee-\J	.	.	.
8BB-/	.	.	8BB-/	8.g\J	8.b-\J	.	.	.
8BB-/	.	.	8BB-/	.	.	.	.	.
.	.	.	.	16f/KL	16a\KL	.	.	.
8BB-/	.	.	8BB-/	8.g/J	8.b-\J	.	.	.
8BB-/	.	.	8BB-/	.	.	.	16g/LL]	16ee-\LL]
.	.	.	.	16b-/LL	16gg\LL	.	16g/	16ee-\
8BB-/J	.	.	8BB-/J	16a-X/	16ff\	.	16a-X/	16ff\
.	.	.	.	16g/JJ	16ee-\JJ	.	16b-/JJ	16gg\JJ
=33	=33	=33	=33	=33	=33	=33	=33	=33
!	!	!	!	!LO:TX:a:t=P:problem=mixedbeam	!	!	!	!
!	!	!	!	!LO:LB:g=original	!	!	!	!
.	.	.	.	.	.	.	.	8qqgg/
8BB-/L	7-r 3	.	8BB-/L	16ff\LL	16aa-X\LL	2.ff\	[2dd\	[2ff\
.	.	.	.	16dd\J	16ff\J	.	.	.
8BB-/	.	.	8BB-/	8.d/J	8.b-\J	.	.	.
8BB-/	.	.	8BB-/	.	.	.	.	.
.	.	.	.	16c/KL	16a\KL	.	.	.
8BB-/	.	.	8BB-/	8.d/J	8.b-\J	.	.	.
8BB-/	.	.	8BB-/	.	.	.	16dd\LL]	16ff\LL]
.	.	.	.	16ff\LL	16aa-X\LL	.	16dd\	16ff\
8BB-/J	.	.	8BB-/J	16ee-\	16gg\	.	16ee-\	16gg\
.	.	.	.	16dd\JJ	16ff\JJ	.	16ff\JJ	16aa-X\JJ
=34	=34	=34	=34	=34	=34	=34	=34	=34
!	!	!	!	!	!	!	!LO:LB:g=original	!
4E-\	.	.	4E-\	4b-/	16gg\LL	4ee-\	2.ee-\	2.gg\
.	.	.	.	.	16ff\J	.	.	.
.	.	.	.	.	8.ee-\J	.	.	.
4C/	6 5	.	4C/	[2an/	.	4r	.	.
.	.	.	.	.	16dd\KL	.	.	.
.	.	.	.	.	8.cc\J	.	.	.
4AA/	x 7	.	4AA/	.	.	4r	.	.
.	.	.	.	.	16b-\LL	.	.	.
.	.	.	.	.	16a\	.	.	.
.	.	.	.	.	16gg\JJ	.	.	.
=35	=35	=35	=35	=35	=35	=35	=35	=35
!	!	!	!	!	!	!LO:TX:a:t=1.	!	!
4D/	.	.	4D/	4a/]	16ff\LL	2.r	2.dd\	2.ff\
.	.	.	.	.	16ee-\J	.	.	.
.	.	.	.	.	8.dd\J	.	.	.
4BB-/	6 5	.	4BB-/	[2g/	.	.	.	.
.	.	.	.	.	16cc\KL	.	.	.
.	.	.	.	.	8.b-\J	.	.	.
4GG/	x 7	.	4GG/	.	.	.	.	.
.	.	.	.	.	16a\LL	.	.	.
.	.	.	.	.	16g\	.	.	.
.	.	.	.	.	16ff\JJ	.	.	.
=36	=36	=36	=36	=36	=36	=36	=36	=36
!	!	!	!	!	!LO:LB:g=original	!	!	!
4C/	.	.	4C/	4g/]	16ee-\LL	4r	2.cc\	2.ee-\
.	.	.	.	.	16dd\J	.	.	.
.	.	.	.	.	8.cc\J	.	.	.
4AA/	6 5	.	4AA/	[2f/	.	8cc\L	.	.
.	.	.	.	.	16b-/KL	.	.	.
.	.	.	.	.	8.a/J	8cc\J	.	.
4FF/	x 7	.	4FF/	.	.	4cc\	.	.
!	!	!	!	!	!LO:TX:a:t=P:problem=mixedbeam	!	!	!
.	.	.	.	.	16g/LL	.	.	.
.	.	.	.	.	16f/	.	.	.
.	.	.	.	.	16ee-\JJ	.	.	.
=37	=37	=37	=37	=37	=37	=37	=37	=37
!	!	!	!	!LO:TX:a:t=P:problem=mixedbeam	!	!	!	!
4BB-/	x 3	.	4BB-/	8f/L]	8dd\	8dd\	8b-\L	8dd\
.	x 6	.	.	8dd\J	4gg\	4gg\	8dd\J	4gg\
4AA/	x 7	.	4AA/	4cc\	.	.	4cc\	.
.	x 6	.	.	.	4ff\	4ff\	.	4ff\
4GG/	x 7	.	4GG/	4b-/	.	.	4b-/	.
.	x 6n	.	.	.	8een\	8eeX\	.	8een\
=38	=38	=38	=38	=38	=38	=38	=38	=38
!LO:LB:g=original	!	!	!	!	!	!	!	!
4r	.	.	4r	4r	8ff\L	4ff\	4r	8ff\L
.	.	.	.	.	8dd\J	.	.	8dd\J
.	.	.	.	.	8qqdd/	.	.	8qqdd/
8FF/L	x 7-r	.	8FF/L	8a/L	2ee-X\	4r	8a/L	2ee-X\
8GG/	.	.	8GG/	8b-/	.	.	8b-/	.
8AA/	.	.	8AA/	8cc/	.	4ee-X\	8cc/	.
8FF/J	.	.	8FF/J	8a/J	.	.	8a/J	.
=39	=39	=39	=39	=39	=39	=39	=39	=39
4BB-/	.	.	4BB-/	(16b-\LL	(16dd\LL	4dd\	(16b-\LL	(16dd\LL
.	.	.	.	16cc\	16cc\	.	16cc\	16cc\)
.	.	.	.	16dd\)	16b-\)	.	16dd\)	16b-\
.	.	.	.	16cc\JJ	16cc\JJ	.	16cc\JJ	16cc\JJ
!	!	!	!	!LO:TX:a:t=t	!LO:TX:a:t=t	!	!LO:TX:a:t=t	!LO:TX:a:t=t
.	.	.	.	8qqb-/	8qqb-/	.	8qqb-/	8qqb-/
4F\	.	.	4F\	2a/	2cc\	2ccT\	2a/	2cc\
4FF/	.	.	4FF/	.	.	.	.	.
=40	=40	=40	=40	=40	=40	=40	=40	=40
!	!	!	!	!	!	!	!LO:TX:b:t=solo	!
4BB-/	.	.	4BB-/	2b-/	2b-\	4b-\	4b-/	4b-\
!	!	!LO:DY:t=pizi	!	!	!	!	!	!LO:TX:b:t=solo
4B-\	x -	p	4B-\	.	.	4r	4b-/	4dd-X\
4A-X\	.	.	4A-X\	4r	4r	4r	4b-/	4dd-\
=41	=41	=41	=41	=41	=41	=41	=41	=41
!	!	!	!LO:LB:g=original	!LO:TX:a:t=6.	!LO:TX:a:t=6.	!LO:TX:a:t=6.	!LO:TX:a:t=t.	!LO:TX:a:t=t
4r	.	.	4r	0.r	0.r	0.r	2.b-/	2.dd-X\
4G-X\	x 5-	.	4G-X\	.	.	.	.	.
4F\	.	.	4F\	.	.	.	.	.
=42	=42	=42	=42	=42	=42	=42	=42	=42
4En\	7-r 5	.	4En\	.	.	.	(16b-/LL	(16dd-X\LL
.	.	.	.	.	.	.	16a/	16cc\
.	.	.	.	.	.	.	16b-/)	16dd-\)
.	.	.	.	.	.	.	16b-/JJ|	16dd-\JJ|
4E\	.	.	4E\	.	.	.	(16b-/LL	(16dd-\LL
.	.	.	.	.	.	.	16a/	16cc\
.	.	.	.	.	.	.	16b-/)	16dd-\)
.	.	.	.	.	.	.	16b-/JJ|	16dd-\JJ|
!	!	!	!	!	!	!	!	!LO:LB:g=original
4E\	.	.	4E\	.	.	.	(16b-/LL	(16dd-X\LL
.	.	.	.	.	.	.	16a/	16cc\
.	.	.	.	.	.	.	16b-/)	16dd-\)
.	.	.	.	.	.	.	16b-/JJ|	16dd-\JJ|
=43	=43	=43	=43	=43	=43	=43	=43	=43
4F\	.	.	4F\	.	.	.	8a\L	8cc\L
.	.	.	.	.	.	.	8dd\	8bb-\
4r	.	.	4r	.	.	.	8cc\	8aa\
.	.	.	.	.	.	.	8b-\	8gg\
4r	.	.	4r	.	.	.	8a\	8ff\
.	.	.	.	.	.	.	8g\J	8een\J
=44	=44	=44	=44	=44	=44	=44	=44	=44
.	.	.	.	.	.	.	8qqg/	8qqee-/
8r	.	.	8r	.	.	.	[>2.a/	[2.ff\
8D/L	7 5	.	8D/L	.	.	.	.	.
8C/	.	.	8C/	.	.	.	.	.
8BB-/	.	.	8BB-/	.	.	.	.	.
8AA/	.	.	8AA/	.	.	.	.	.
8GG/J	.	.	8GG/J	.	.	.	.	.
=45	=45	=45	=45	=45	=45	=45	=45	=45
4FF/	.	.	4FF/	1.r	1.r	1.r	8a\L]	8ff\L]
.	.	.	.	.	.	.	8dd\	8bb-\
4r	.	.	4r	.	.	.	8cc\	8aa\
.	.	.	.	.	.	.	8b-\	8gg\
4r	.	.	4r	.	.	.	8a\	8ff\
.	.	.	.	.	.	.	8g\J	8een\J
=46	=46	=46	=46	=46	=46	=46	=46	=46
8r	.	.	8r	.	.	.	8r	8ff\L
8F\L	x 6	.	8F\L	.	.	.	8a/L	8dd\J
!	!	!	!	!	!	!	!	!LO:TX:a:t=t.
.	.	.	.	.	.	.	.	8qqdd/
8G\	x 6	.	8G\	.	.	.	8b-/	2ee-X\
8F\	.	.	8F\	.	.	.	8a/	.
8G\	6 5	.	8G\	.	.	.	8b-/	.
8A\J	x 3	.	8A\J	.	.	.	8cc/J	.
=47	=47	=47	=47	=47	=47	=47	=47	=47
!	!	!	!	!	!	!	!LO:TX:a:t=P:problem=mixedbeam	!
!	!	!	!	!	!	!	!LO:LB:g=original	!
4B-\	x 6	.	4B-\	8r	8dd\	4ff\	8f/L	8dd\
.	.	.	.	8dd\	4gg\	.	8dd\J	4gg\
4A\	x 7	.	4A\	4cc\	.	4.ff\	4cc\	.
.	x 6	.	.	.	4ff\	.	.	4ff\
4G\	x 7	.	4G\	4b-/	.	.	4b-/	.
.	x 6n	.	.	.	[8bb-\	8eeX\	.	[8bb-\
=48	=48	=48	=48	=48	=48	=48	=48	=48
!	!	!	!	!LO:LB:g=original	!	!	!	!
4F\	x 4	.	4F\	8cc\	8bb-\]	4ff\	8cc\	8bb-\]
.	x 3	.	.	4cc\	4aa\	.	4cc\	4aa\
4r	.	.	4r	.	.	4r	.	.
.	.	.	.	4cc\	4ee-\	.	4cc\	4ee-\
4F\	x 7	.	4F\	.	.	4r	.	.
.	x 6	.	.	16b-/LL	16dd\LL	.	16b-/LL	16dd\LL
.	.	.	.	16a/JJ	16cc\JJ	.	16a/JJ	16cc\JJ
=49	=49	=49	=49	=49	=49	=49	=49	=49
!LO:LB:g=original	!	!	!	!	!	!LO:TX:a:t=2.	!	!
4BB-X/	x 3	.	4BB-/	8b-/L	8dd\	1.r	4b-/	4dd\
.	x 6	.	.	8d/J	4g/	.	.	.
4AA/	x 7	.	4AA/	4c/	.	.	4r	4r
.	x 6	.	.	.	4f/	.	.	.
4GG/	x 7	.	4GG/	4B-/	.	.	4r	4r
.	x 6n	.	.	.	[8b-/	.	.	.
=50	=50	=50	=50	=50	=50	=50	=50	=50
!	!	!	!	!	!	!	!LO:TX:a:t=1.	!LO:TX:a:t=1.
4FF/	x 4	.	4FF/	8c/	8b-/]	.	2.r	2.r
.	x 3	.	.	4c/	4a/	.	.	.
4r	.	.	4r	.	.	.	.	.
.	.	.	.	4c/	4e-/	.	.	.
4FF/	x 7-r	.	4FF/	.	.	.	.	.
.	.	.	.	16B-/LL	16d/LL	.	.	.
.	.	.	.	16A/JJ	16c/JJ	.	.	.
=51	=51	=51	=51	=51	=51	=51	=51	=51
!	!	!	!	!	!LO:LB:g=original	!	!	!
4BB-/	.	.	4BB-/	(16B-/LL	(16d/LL	4r	4r	4r
.	.	.	.	16d/)	16f/)	.	.	.
.	.	.	.	(16d/	(16f/	.	.	.
.	.	.	.	16f/JJ)	16b-/JJ)	.	.	.
4BB-/	6 4	.	4BB-/	(16f/LL	(16b-\LL	4B-/	[2dd\	[2ff\
.	.	.	.	16b-/)	16dd\)	.	.	.
.	.	.	.	(16b-/	(16dd\	.	.	.
.	.	.	.	16dd/JJ)	16ff\JJ)	.	.	.
4BB-/	5 3	.	4BB-/	(16dd\LL	(16ff\LL	8B-/L	.	.
.	.	.	.	16ee-\)	16gg\)	.	.	.
.	.	.	.	(16ee-\	(16gg\	8B-/J	.	.
.	.	.	.	16dd\JJ)	16ff\JJ)	.	.	.
=52	=52	=52	=52	=52	=52	=52	=52	=52
!	!	!	!LO:LB:g=original	!	!	!	!	!
4BB-/	.	.	4BB-/	4dd\	4ff\	4B-/	16dd\LL]	16ff\LL]
.	.	.	.	.	.	.	(16ee-\	16gg\
.	.	.	.	.	.	.	16ee-\	(16gg\
.	.	.	.	.	.	.	16dd\JJ)	16ff\JJ)
4r	.	.	4r	4r	4r	4r	(16dd\LL	(16ff\LL
.	.	.	.	.	.	.	16ee-\)	16gg\)
.	.	.	.	.	.	.	(16ee-\	(16gg\
.	.	.	.	.	.	.	16dd\JJ)	16ff\JJ)
4F\	.	.	4F\	4cc\	4ee-\	4ee-\	(16dd\LL	(16ff\LL
.	.	.	.	.	.	.	16cc\)	16ee-\)
.	.	.	.	.	.	.	(16cc\	(16ee-\
.	.	.	.	.	.	.	16a\JJ)	16cc\JJ)
=53	=53	=53	=53	=53	=53	=53	=53	=53
!	!	!	!	!	!LO:TUP:a:problem=klamra łukowa	!	!	!LO:TUP:a:problem=klamra łukowa
4B-\	.	.	4B-\	4b-/	24dd\LL	4dd\	4b-/	24dd\LL
.	.	.	.	.	24ee-\	.	.	24ee-\
.	.	.	.	.	24ff\JJ	.	.	24ff\JJ
!	!	!	!	!	!LO:TUP:a:problem=klamra łukowa	!	!	!LO:TUP:a:problem=klamra łukowa
.	.	.	.	.	24gg\LL	.	.	24gg\LL
.	.	.	.	.	24aa\	.	.	24aa\
.	.	.	.	.	24bb-\JJ	.	.	24bb-\JJ
!	!	!	!	!	!	!LO:TX:a:t=t.	!	!
4F\	.	.	4F\	4b-/	4dd\	2cc\	4b-/	4dd\
!	!	!	!	!LO:TX:a:t=t	!LO:TX:a:t=t	!	!LO:TX:a:t=t	!LO:TX:a:t=t.
4FF/	.	.	4FF/	4a/	4cc\	.	4a/	4cc\
=54	=54	=54	=54	=54	=54	=54	=54	=54
!	!	!	!	!	!	!	!	!LO:LB:g=original
4BB-/	.	.	4BB-/	8.b-/L	8.b-/L	8.b-\L	8.b-/L	8.b-/L
.	.	.	.	16f/Jk	16f/Jk	16f\Jk	16f/Jk	16f/Jk
4r	.	.	4r	8.b-/L	8.b-/L	8.b-\L	8.b-/L	8.b-/L
.	.	.	.	16f/Jk	16f/Jk	16f\Jk	16f/Jk	16f/Jk
4r	.	.	4r	8.d/L	8.d/L	8.d/L	8.d/L	8.d/L
.	.	.	.	16f/Jk	16f/Jk	16f/Jk	16f/Jk	16f/Jk
=55	=55	=55	=55	=55	=55	=55	=55	=55
4BB-/	.	.	4BB-/	16b-/LL	16b-/LL	8.b-\L	16b-/LL	16b-/LL
.	.	.	.	16f/J	16f/J	.	16f/J	16f/J
!	!	!	!	!LO:TX:a:t=t.	!LO:TX:a:t=t	!	!LO:TX:a:t=t.	!LO:TX:a:t=t.
.	.	.	.	8f/J	8f/J	.	8f/J	8f/J
.	.	.	.	.	.	16f\Jk	.	.
4r	.	.	4r	16b-/LL	16b-/LL	8.b-\L	16b-/LL	16b-/LL
.	.	.	.	16f/J	16f/J	.	16f/J	16f/J
!	!	!	!	!LO:TX:a:t=t.	!LO:TX:a:t=t	!	!LO:TX:a:t=t.	!LO:TX:a:t=t.
.	.	.	.	8f/J	8f/J	.	8f/J	8f/J
.	.	.	.	.	.	16f\Jk	.	.
4r	.	.	4r	16d/LL	16d/LL	8.d/L	16d/LL	16d/LL
.	.	.	.	16f/J	16f/J	.	16f/J	16f/J
!	!	!	!	!LO:TX:a:t=t.	!LO:TX:a:t=t	!	!LO:TX:a:t=t.	!LO:TX:a:t=t.
.	.	.	.	8f/J	8f/J	.	8f/J	8f/J
.	.	.	.	.	.	16f/Jk	.	.
=56	=56	=56	=56	=56	=56	=56	=56	=56
!	!	!	!	!	!	!LO:LB:g=original	!	!
8.D\L	x 6	.	8.D\L	16d/LL	16d/LL	8.d/L	16d/LL	16d/LL
.	.	.	.	16f/J	16f/J	.	16f/J	16f/J
!	!	!	!	!LO:TX:a:t=t.	!LO:TX:a:t=t	!	!LO:TX:a:t=t.	!LO:TX:a:t=t.
.	.	.	.	8f/J	8f/J	.	8f/J	8f/J
16F\Jk	.	.	16F\Jk	.	.	16f/Jk	.	.
8.B-\L	.	.	8.B-\L	16b-/LL	16b-/LL	8.b-\L	16b-/LL	16b-/LL
.	.	.	.	16f/J	16f/J	.	16f/J	16f/J
!	!	!	!	!LO:TX:a:t=t.	!LO:TX:a:t=t	!	!LO:TX:a:t=t	!LO:TX:a:t=t.
.	.	.	.	8f/J	8f/J	.	8f/J	8f/J
16F\Jk	.	.	16F\Jk	.	.	16f\Jk	.	.
8.D\L	.	.	8.D\L	16d/LL	16d/LL	8.d/L	16d/LL	16d/LL
.	.	.	.	16f/J	16f/J	.	16f/J	16f/J
!	!	!	!	!LO:TX:a:t=t.	!LO:TX:a:t=t	!	!LO:TX:a:t=t.	!LO:TX:a:t=t.
.	.	.	.	8f/J	8f/J	.	8f/J	8f/J
16F\Jk	.	.	16F\Jk	.	.	16f/Jk	.	.
=57	=57	=57	=57	=57	=57	=57	=57	=57
2BB-/	.	.	2BB-/	2B-/	2B-/	2d/	2.b-\	2.b-\
4r	.	.	4r	4r	4r	4r	.	.
!LO:TX:b:t=Fine	!	!	!LO:TX:b:t=Fine	!LO:TX:b:t=Fine:rj	!LO:TX:b:t=Fine	!LO:TX:b:t=Fine	!LO:TX:b:t=Fine	!LO:TX:b:t=Fine
==;;	==	==	==;;	==;;	==;;	==;;	==;;	==;;
*-	*-	*-	*-	*-	*-	*-	*-	*-
!!!system-decoration: [(s1,s2,)]s3[(s4,s5,s6)]s7
!!!RDF**kern: | = vertical stroke
!!!RDF**kern: > = above
!!!RDF**kern: < = below
!!!ENC: Berenika Jozajtis
!!!END: 2022-02-14
!!!ENC: Krzysztof Stępień
!!!END: 2022-02-23
